packages/core/src/svgs/networks/mono/cardano.svg

<svg width="24" height="24" viewBox="0 0 24 24" fill="none" xmlns="http://www.w3.org/2000/svg">
<path d="M11.7604 3.16663C12.1959 2.94367 12.7326 3.45181 12.4967 3.87829C12.3683 4.21662 11.8602 4.30606 11.5867 4.04681C11.3145 3.79792 11.4052 3.30014 11.7682 3.15755L11.7604 3.16663ZM7.07304 3.65533C7.34526 3.54903 7.67322 3.78107 7.646 4.05718C7.67322 4.35921 7.29082 4.58995 7.0186 4.43828C6.66342 4.30606 6.70879 3.74477 7.07304 3.65533ZM16.6785 4.44865C16.2611 4.39421 16.1976 3.77199 16.5891 3.64755C16.9079 3.50496 17.1892 3.77199 17.2346 4.05718C17.1711 4.29699 16.9624 4.51995 16.6798 4.44865M8.13859 5.56994C8.58451 5.30291 9.21192 5.70216 9.13932 6.19216C9.12118 6.7003 8.43933 6.99326 8.04785 6.65493C7.66545 6.3879 7.72897 5.77346 8.13859 5.56994ZM14.8987 5.8629C15.0983 5.3742 15.8981 5.35605 16.1263 5.8279C16.3441 6.20123 16.0718 6.66401 15.6726 6.78845C15.1528 6.8779 14.6524 6.34383 14.8987 5.8629ZM11.1952 6.75345C11.1952 6.33475 11.5958 6.02364 12.0145 5.99642C12.2867 6.04957 12.5874 6.16494 12.7054 6.43327C12.9232 6.79753 12.7326 7.30437 12.3321 7.48326C12.1506 7.57141 11.9328 7.53511 11.7332 7.52734C11.4324 7.38474 11.1771 7.09956 11.1952 6.76253V6.75345ZM4.2277 7.37567C4.62695 7.13586 5.17398 7.5727 5.01843 7.99918C4.93676 8.35437 4.42732 8.50603 4.13695 8.27529C3.82585 8.05233 3.87251 7.52733 4.2277 7.37567ZM19.1998 7.37567C19.5459 7.10993 20.1111 7.41197 20.0657 7.82159C20.0916 8.204 19.6107 8.49825 19.2646 8.30122C18.8913 8.1327 18.8459 7.58956 19.1998 7.37567ZM13.1604 8.1327C13.4443 8.04066 13.7502 8.04196 14.0328 8.13659C14.3154 8.23122 14.5591 8.41399 14.725 8.6577C15.1437 9.24491 14.9259 10.1524 14.2609 10.4907C13.5791 10.9003 12.5783 10.5529 12.3243 9.8231C12.0326 9.16454 12.4513 8.33751 13.1604 8.1327ZM9.83929 8.19492C10.468 7.90974 11.3132 8.15085 11.6139 8.76529C11.9769 9.36936 11.6956 10.2068 11.0591 10.5179C10.4226 10.8731 9.51263 10.6061 9.21192 9.95661C8.85803 9.33436 9.16655 8.47881 9.83929 8.19492ZM6.51046 9.28899C6.55583 8.89881 6.93823 8.64862 7.32971 8.6227C7.52632 8.64118 7.71077 8.72611 7.85263 8.86351C7.9945 9.00089 8.0853 9.18251 8.11007 9.37843C8.08285 9.77902 7.76526 10.1796 7.32841 10.1796C6.83582 10.2159 6.41972 9.74273 6.51046 9.28899ZM16.335 8.70177C16.8341 8.43603 17.5172 8.83529 17.499 9.37843C17.5353 9.96569 16.7705 10.3766 16.2805 10.037C15.7607 9.7518 15.797 8.95195 16.3337 8.70177M8.48211 10.7577C8.77118 10.6838 9.0771 10.7046 9.35451 10.8173C9.63059 10.9288 9.86003 11.1285 10.0104 11.3812C10.1622 11.6427 10.2152 11.9498 10.1601 12.247C10.1049 12.5443 9.9452 12.8119 9.70966 13.0016C9.09136 13.5616 7.94544 13.3308 7.61748 12.5738C7.23508 11.879 7.69008 10.9431 8.48211 10.7577ZM14.7859 10.7577C15.3511 10.5983 16.0135 10.8109 16.3155 11.3022C16.7239 11.8699 16.5229 12.7255 15.9318 13.0807C15.2967 13.5084 14.3309 13.2855 13.9861 12.6179C13.5674 11.9335 13.9861 10.9625 14.7859 10.7486V10.7577ZM4.73454 11.3903C5.23361 11.2127 5.78972 11.7455 5.59009 12.2264C5.46046 12.6633 4.82528 12.8227 4.49732 12.4934C4.10584 12.1992 4.25103 11.5238 4.73454 11.3903ZM18.352 12.0929C18.3475 11.9952 18.3622 11.8975 18.3956 11.8056C18.429 11.7137 18.4802 11.6295 18.5464 11.5575C18.6829 11.4103 18.871 11.3216 19.0714 11.3099C19.4085 11.3631 19.7455 11.6301 19.717 11.9957C19.7533 12.4675 19.1531 12.7968 18.7344 12.566C18.5348 12.4753 18.435 12.2809 18.352 12.0929ZM2.26382 11.6301C2.57234 11.5057 2.94567 11.7546 2.87308 12.0747C2.85493 12.4403 2.30012 12.5829 2.09012 12.2809C1.90864 12.067 2.01753 11.7455 2.2716 11.6301H2.26382ZM21.3218 11.6301C21.5409 11.4798 21.8766 11.5783 21.9583 11.8168C22.1048 12.0838 21.8416 12.4403 21.5409 12.3949C21.1131 12.4312 20.9666 11.8077 21.3218 11.621V11.6301ZM10.1232 13.3749C10.9139 13.1792 11.7695 13.8195 11.7785 14.6025C11.8239 15.4036 10.9878 16.1166 10.1686 15.9299C9.85939 15.8756 9.57874 15.7151 9.37525 15.4762C9.17497 15.2398 9.06599 14.9395 9.06803 14.6297C9.06803 14.0503 9.523 13.4994 10.1232 13.384V13.3749ZM13.2706 13.3749C14.0807 13.161 14.9544 13.8105 14.9454 14.6207C14.9894 15.3945 14.1715 16.0803 13.3717 15.9208C12.625 15.8314 12.0702 15.0394 12.2789 14.3355C12.3878 13.8727 12.7883 13.4903 13.2706 13.3749ZM7.1936 13.8636C7.75748 13.7742 8.28507 14.3718 8.04915 14.8786C7.88582 15.4218 7.06656 15.5734 6.70231 15.1275C6.27453 14.6997 6.59212 13.9168 7.1936 13.8636ZM16.4374 13.8908C16.93 13.686 17.5483 14.1047 17.5029 14.6207C17.5302 15.191 16.7744 15.5916 16.2844 15.2519C15.7374 14.9499 15.8281 14.0697 16.4374 13.8908ZM19.0118 16.3836C18.8213 16.0271 19.1764 15.5643 19.577 15.6266C19.7766 15.6266 19.9218 15.7782 20.0501 15.9118C20.0774 16.1166 20.1227 16.3564 19.94 16.5249C19.6937 16.8192 19.1492 16.731 19.0118 16.3836ZM4.22121 15.7225C4.59325 15.4827 5.12991 15.8469 5.04824 16.2669C5.00287 16.6493 4.51158 16.8632 4.1927 16.6493C3.84788 16.4523 3.85696 15.9014 4.22121 15.7225ZM11.6696 16.5145C12.1622 16.3006 12.7883 16.7193 12.743 17.2366C12.7793 17.8134 12.0067 18.2153 11.5245 17.8678C10.9787 17.5736 11.0695 16.6934 11.6696 16.5145ZM8.21248 17.2897C8.64025 17.0758 9.20414 17.4414 9.15877 17.8951C9.17692 18.2684 8.79581 18.5886 8.42248 18.5264C8.10359 18.5264 7.89489 18.2503 7.79508 17.9923C7.79508 17.7071 7.92211 17.396 8.22285 17.2806L8.21248 17.2897ZM15.2176 17.2897C15.6454 17.0304 16.2546 17.4064 16.2183 17.886C16.2274 18.4019 15.5365 18.7221 15.1268 18.3928C15.0391 18.327 14.9695 18.24 14.9245 18.1399C14.8795 18.0399 14.8607 17.9301 14.8698 17.8207C14.8789 17.7114 14.9155 17.6061 14.9763 17.5149C15.0371 17.4236 15.1202 17.3492 15.2176 17.2988V17.2897ZM16.4283 20.1817C16.2365 19.9147 16.4633 19.5673 16.7731 19.5064C17.0285 19.5582 17.2916 19.7371 17.2281 20.0119C17.2009 20.3956 16.6279 20.511 16.4283 20.1908V20.1817ZM6.77619 19.9419C6.84749 19.7202 7.03027 19.4973 7.30378 19.5582C7.70304 19.5854 7.8223 20.1636 7.47619 20.3425C7.1573 20.5369 6.80212 20.2621 6.77619 19.9419ZM11.4337 20.1999C11.505 19.8706 11.9522 19.7112 12.2426 19.8888C12.4241 19.9691 12.4889 20.1739 12.5343 20.3515L12.4617 20.6173C12.3424 20.7599 12.1895 20.8934 11.9976 20.8843C11.6243 20.9297 11.2872 20.5291 11.4337 20.1999Z" fill="white"/>
</svg>

<svg xmlns="http://www.w3.org/2000/svg" width="24" height="24" fill="none" viewBox="0 0 24 24">
    <path fill="#fff" d="M11.76 3.167c.436-.223.973.285.737.711-.129.339-.637.428-.91.169-.272-.25-.182-.747.181-.89zm-4.687.488c.272-.106.6.126.573.402.027.302-.355.533-.627.381-.356-.132-.31-.693.054-.783m9.606.794c-.418-.055-.481-.677-.09-.801.319-.143.6.124.646.41-.064.239-.273.462-.555.39M8.139 5.57c.446-.267 1.073.132 1 .622-.018.508-.7.801-1.091.463-.383-.267-.319-.882.09-1.085m6.76.293c.2-.489 1-.507 1.227-.035.218.373-.054.836-.453.96-.52.09-1.02-.444-.774-.925m-3.704.89c0-.418.4-.73.82-.757.272.054.572.169.69.437.218.365.028.871-.373 1.05-.181.088-.4.052-.599.044-.3-.142-.556-.427-.538-.764zm-6.967.623c.399-.24.946.197.79.623-.081.355-.59.507-.881.276-.311-.223-.264-.748.09-.9m14.972 0c.346-.266.911.036.866.446.026.382-.455.676-.801.48-.374-.17-.42-.712-.065-.926m-6.04.757c.284-.092.59-.091.873.004.282.094.526.277.692.52.419.588.2 1.495-.464 1.834-.682.41-1.683.062-1.937-.668-.291-.658.127-1.485.836-1.69m-3.32.062c.628-.285 1.473-.044 1.774.57.363.604.082 1.442-.555 1.753-.636.355-1.546.088-1.847-.561-.354-.623-.045-1.478.627-1.762M6.51 9.289c.046-.39.428-.64.82-.666a.87.87 0 0 1 .78.755c-.027.401-.345.802-.782.802-.492.036-.908-.437-.818-.891m9.825-.587c.5-.266 1.182.133 1.164.676.036.588-.729.999-1.218.659-.52-.285-.484-1.085.053-1.335m-7.852 2.056c.29-.074.595-.053.873.06.276.11.505.31.655.563a1.265 1.265 0 0 1-.3 1.62c-.619.56-1.765.33-2.093-.427-.382-.695.073-1.63.865-1.816m6.304 0c.565-.16 1.228.053 1.53.544.408.568.207 1.424-.384 1.779-.635.427-1.601.205-1.946-.463-.419-.684 0-1.655.8-1.87zm-10.051.632c.499-.177 1.055.355.855.836-.13.437-.765.597-1.093.267-.391-.294-.246-.97.238-1.103m13.617.703a.74.74 0 0 1 .194-.536.78.78 0 0 1 .525-.247c.337.053.674.32.646.686.036.471-.564.8-.983.57-.2-.09-.299-.285-.382-.473M2.264 11.63c.308-.124.682.125.61.445-.02.365-.574.508-.784.206-.181-.214-.072-.536.182-.65zm19.058 0c.219-.15.555-.052.636.187.147.267-.116.623-.417.578-.428.036-.574-.587-.22-.774zm-11.199 1.745c.79-.196 1.647.444 1.656 1.227.045.802-.791 1.515-1.61 1.328a1.35 1.35 0 0 1-.794-.454 1.3 1.3 0 0 1-.307-.846c0-.58.455-1.13 1.055-1.246zm3.148 0c.81-.214 1.683.435 1.674 1.246.044.774-.774 1.46-1.573 1.3-.747-.09-1.302-.882-1.093-1.585.109-.463.51-.846.992-.961m-6.077.489c.563-.09 1.091.508.855 1.015-.163.543-.982.694-1.347.248-.427-.427-.11-1.21.492-1.263m9.243.027c.493-.205 1.111.214 1.066.73.027.57-.729.97-1.219.63-.547-.301-.456-1.181.153-1.36m2.575 2.493c-.19-.357.164-.82.565-.757.2 0 .345.151.473.285.027.205.073.444-.11.613-.246.294-.79.206-.928-.141m-14.79-.662c.371-.24.908.125.826.545-.045.382-.536.596-.855.382-.345-.197-.336-.748.028-.927m7.448.793c.492-.214 1.118.204 1.073.722.036.576-.736.978-1.219.63-.545-.293-.454-1.174.146-1.352m-3.458.775c.428-.214.992.151.947.605.018.373-.363.694-.737.631-.318 0-.527-.276-.627-.534 0-.285.127-.596.428-.711zm7.006 0c.427-.26 1.037.116 1 .596.01.516-.681.836-1.091.507a.65.65 0 0 1 .09-1.094zm1.21 2.892c-.192-.267.035-.615.345-.676.256.052.519.231.455.506-.027.384-.6.499-.8.179zm-9.652-.24c.071-.222.254-.445.528-.384.399.027.518.606.172.785-.319.194-.674-.08-.7-.401m4.658.258c.071-.33.518-.489.809-.311.181.08.246.285.291.463l-.072.265c-.12.143-.272.276-.464.267-.374.046-.71-.355-.564-.684"/>
</svg>
